img/svg/card.svg

<svg width="22" height="20" viewBox="0 0 22 20" xmlns="http://www.w3.org/2000/svg">
<path fill-rule="evenodd" clip-rule="evenodd" d="M3.25 2.75C2.69772 2.75 2.25 3.19771 2.25 3.75L2.25 5.25H19.75V3.75003C19.75 3.19774 19.3023 2.75003 18.75 2.75003L3.25 2.75ZM19.75 7.25H2.25V9.75H19.75V7.25ZM19.75 11.75H2.25L2.25 16.25C2.25 16.8023 2.69771 17.25 3.25 17.25L18.75 17.25C19.3023 17.25 19.75 16.8023 19.75 16.25V11.75ZM0.250001 3.75C0.250001 2.09315 1.59315 0.749995 3.25001 0.75L18.75 0.750029C20.4069 0.750032 21.75 2.09318 21.75 3.75003V16.25C21.75 17.9069 20.4069 19.25 18.75 19.25L3.25 19.25C1.59314 19.25 0.25 17.9069 0.25 16.25L0.250001 3.75Z" />
</svg>

<svg width="22" height="20" xmlns="http://www.w3.org/2000/svg"><path fill-rule="evenodd" clip-rule="evenodd" d="M3.25 2.75a1 1 0 00-1 1v1.5h17.5v-1.5a1 1 0 00-1-1H3.25zm16.5 4.5H2.25v2.5h17.5v-2.5zm0 4.5H2.25v4.5a1 1 0 001 1h15.5a1 1 0 001-1v-4.5zm-19.5-8a3 3 0 013-3h15.5a3 3 0 013 3v12.5a3 3 0 01-3 3H3.25a3 3 0 01-3-3V3.75z"/></svg>
